icons/standard_slate-tt-48_megaphone.svg

<svg xmlns="http://www.w3.org/2000/svg" viewBox="0 0 48 48"><style>.st0{fill:none}.st1{fill:#bec0c3}.st2{fill:#282c36}.st3{fill:none;stroke:#282c36;stroke-width:2;stroke-linejoin:round;stroke-miterlimit:10}.st4{fill:#292d37}</style><path class="st0" d="M0 0h48v48H0z" id="Boundary"/><g id="Design"><path class="st1" d="M33.03 7.62c.65-.19 1.24-.37 1.76-.52.99 1.85 1.37 10.33 1.12 17.14-.15 4.07-.52 7.55-1.12 8.66-.51-.15-1.1-.32-1.76-.51 1.31-5.33 1.3-19.44 0-24.77z"/><path class="st2" d="M44 19h4v2h-4z"/><path transform="rotate(-45.001 45.115 26.116)" class="st2" d="M44.111 24.114h2.008v4.002h-2.008z"/><path transform="rotate(-45.001 45.086 13.885)" class="st2" d="M43.084 12.881h4.002v2.008h-4.002z"/><path class="st2" d="M37.85 13.97C37.33 5 35.62 5 35 5c-.1 0-.19.01-.28.04-12.62 3.73-26.69 7.3-28.38 6.82A.974.974 0 0 0 6 11.8c-1.15 0-1.98 1.02-2.47 3.03-.01.05-.03.11-.04.17h-.86C1.18 15 0 16.18 0 17.63v4.74C0 23.82 1.18 25 2.63 25h.82c.41 1.81 1.16 3.33 2.55 3.33.1 0 .25-.03.34-.06.15-.05.41-.06.77-.04l3.06 13.66c.4 1.8 2.03 3.11 3.87 3.11 1.19 0 2.31-.53 3.07-1.45.75-.93 1.05-2.13.81-3.31l-2.27-10.38c5.43 1.28 12.45 3.17 19.07 5.1.09.03.19.04.28.04.62 0 2.33 0 2.85-8.98 2.47-.9 4.15-3.29 4.15-6.03 0-2.73-1.68-5.13-4.15-6.02zM3.14 23h-.51c-.35 0-.63-.28-.63-.63v-4.74c0-.35.28-.63.63-.63h.53c-.1.95-.16 1.99-.16 3.06 0 .76.03 1.83.14 2.94zm12.82 17.65A1.956 1.956 0 0 1 14.04 43c-.91 0-1.72-.65-1.91-1.54L9.23 28.5c1.16.2 2.61.49 4.27.87l2.46 11.28zm15.15-8.81c-4.47-1.26-10.68-2.96-15.89-4.14-3.69-.84-6.87-1.43-8.57-1.43-.22 0-.42.01-.59.03-.28-.3-.68-1.41-.91-3.31-.09-.83-.15-1.81-.15-2.93 0-1.18.07-2.19.17-3.04.22-1.83.62-2.9.89-3.19 3.26.37 17-3.35 25.05-5.66 1.19 4.87 1.19 18.79 0 23.67zm4.8-7.6c-.15 4.07-.52 7.55-1.12 8.66-.51-.15-1.1-.32-1.76-.51 1.31-5.33 1.3-19.44 0-24.77.65-.19 1.24-.37 1.76-.52.99 1.85 1.37 10.33 1.12 17.14zm2.03-.47c.04-1.14.06-2.39.06-3.77s-.02-2.64-.06-3.78c1.26.77 2.06 2.18 2.06 3.77 0 1.59-.8 3-2.06 3.78z"/></g></svg>

<?xml version="1.0" encoding="utf-8"?>
<!-- Generator: Adobe Illustrator 19.2.1, SVG Export Plug-In . SVG Version: 6.00 Build 0)  -->
<svg version="1.1" xmlns="http://www.w3.org/2000/svg" xmlns:xlink="http://www.w3.org/1999/xlink" x="0px" y="0px"
	 viewBox="0 0 48 48" style="enable-background:new 0 0 48 48;" xml:space="preserve">
<style type="text/css">
	.st0{fill:none;}
	.st1{fill:#BEC0C3;}
	.st2{fill:#282C36;}
	.st3{fill:none;stroke:#282C36;stroke-width:2;stroke-linejoin:round;stroke-miterlimit:10;}
	.st4{fill:#292D37;}
</style>
<g id="Boundary">
	<rect class="st0" width="48" height="48"/>
</g>
<g id="Design">
	<g>
		<path class="st1" d="M33.03,7.62c0.65-0.19,1.24-0.37,1.76-0.52c0.99,1.85,1.37,10.33,1.12,17.14c-0.15,4.07-0.52,7.55-1.12,8.66
			c-0.51-0.15-1.1-0.32-1.76-0.51C34.34,27.06,34.33,12.95,33.03,7.62z"/>
		<g>
			<rect x="44" y="19" class="st2" width="4" height="2"/>
			
				<rect x="44.111" y="24.114" transform="matrix(0.7071 -0.7071 0.7071 0.7071 -5.2522 39.55)" class="st2" width="2.008" height="4.002"/>
			
				<rect x="43.084" y="12.881" transform="matrix(0.7071 -0.7071 0.7071 0.7071 3.3874 35.9476)" class="st2" width="4.002" height="2.008"/>
			<path class="st2" d="M37.85,13.97C37.33,5,35.62,5,35,5c-0.1,0-0.19,0.01-0.28,0.04C22.1,8.77,8.03,12.34,6.34,11.86
				C6.23,11.82,6.12,11.8,6,11.8c-1.15,0-1.98,1.02-2.47,3.03C3.52,14.88,3.5,14.94,3.49,15H2.63C1.18,15,0,16.18,0,17.63v4.74
				C0,23.82,1.18,25,2.63,25h0.82c0.41,1.81,1.16,3.33,2.55,3.33c0.1,0,0.25-0.03,0.34-0.06c0.15-0.05,0.41-0.06,0.77-0.04
				l3.06,13.66c0.4,1.8,2.03,3.11,3.87,3.11c1.19,0,2.31-0.53,3.07-1.45c0.75-0.93,1.05-2.13,0.81-3.31l-2.27-10.38
				c5.43,1.28,12.45,3.17,19.07,5.1C34.81,34.99,34.91,35,35,35c0.62,0,2.33,0,2.85-8.98c2.47-0.9,4.15-3.29,4.15-6.03
				C42,17.26,40.32,14.86,37.85,13.97z M3.14,23H2.63C2.28,23,2,22.72,2,22.37v-4.74C2,17.28,2.28,17,2.63,17h0.53
				C3.06,17.95,3,18.99,3,20.06C3,20.82,3.03,21.89,3.14,23z M15.96,40.65c0.12,0.58-0.03,1.17-0.4,1.63
				C15.18,42.74,14.63,43,14.04,43c-0.91,0-1.72-0.65-1.91-1.54L9.23,28.5c1.16,0.2,2.61,0.49,4.27,0.87L15.96,40.65z M31.11,31.84
				c-4.47-1.26-10.68-2.96-15.89-4.14c-3.69-0.84-6.87-1.43-8.57-1.43c-0.22,0-0.42,0.01-0.59,0.03c-0.28-0.3-0.68-1.41-0.91-3.31
				C5.06,22.16,5,21.18,5,20.06c0-1.18,0.07-2.19,0.17-3.04c0.22-1.83,0.62-2.9,0.89-3.19c3.26,0.37,17-3.35,25.05-5.66
				C32.3,13.04,32.3,26.96,31.11,31.84z M35.91,24.24c-0.15,4.07-0.52,7.55-1.12,8.66c-0.51-0.15-1.1-0.32-1.76-0.51
				c1.31-5.33,1.3-19.44,0-24.77c0.65-0.19,1.24-0.37,1.76-0.52C35.78,8.95,36.16,17.43,35.91,24.24z M37.94,23.77
				C37.98,22.63,38,21.38,38,20s-0.02-2.64-0.06-3.78C39.2,16.99,40,18.4,40,19.99C40,21.58,39.2,22.99,37.94,23.77z"/>
		</g>
	</g>
</g>
</svg>
